X:1
T:The Deserter (3)
M:3/4
L:1/4
K:G
D/2-E/2| G A A| G DD/2-E/2| =F D D| D2B/2-c/2| d d e| d B G| c d e|\
 d2 B/2c/2| d d e| d B G| A A B| c2B/2-c/2| d B G| E/2C/2 B, C| D E F|\
 G2||
